X:1
T:A Major Oliver Holden, 1793
T:Charles Wesley, 1739 Amended by George Whitefield, 1753
T:New-Jerusalem No copyright. Transcribed from The Union Harmony, 1793.
%%score [ 1 2 3 4 ]
L:1/8
M:2/4
K:A
V:1 treble nm="Treble" snm="Tr."
V:2 treble nm="Counter" snm="C."
V:3 treble-8 nm="Tenor" snm="T."
V:4 bass nm="Bass" snm="B."
V:1
 c3 B | A2 B2 | B2 A2 | G4 | G3 G | G2 A2 | A2 B2 | c4 |: A2 B2 | A2 A2 | B2 A2 | G4 | c3 B | %13
w: 1.~Hark! The|her- ald|an- gels|sing,|Glo- ry|to the|new- born|King;|Peace on|earth, and|mer- cy|mild,|God and|
w: 2.~Joy- ful|all ye|na- tions,|rise,|Join the|tri- umph|of the|skies;|Na- ture,|rise and|wor- ship|Him|Who is|
 c2 f2 | e3 e | [ce]4 :| %16
w: sin- ners|re- con-|ciled.|
w: born at|Beth- le-|hem.|
V:2
 E3 E | F2 G2 | F2 E2 | E4 | E3 E | E2 F2 | E2 E2 | E4 |: E2 E2 | E2 E2 | F2 F2 | E4 | A3 B | %13
w: 3.~Christ, by|high- est|heav'n, a-|dored,|Christ, the|ev- er-|las- ting|Lord!|Late in|time be-|hold Him|come,|Off- spring|
w: 4.~Veiled in|flesh the|God- head|see,|Hail th'in-|car- nate|De- i-|ty!|Pleased as|man with|men t'ap-|pear,|Je- sus,|
 A2 F2 | G3 G | A4 :| %16
w: of the|vir- gin's|womb.|
w: our Em-|man- uel|here.|
V:3
 A3 B | c2 e2 | d2 c2 | B4 | B3 c | B2 d2 | c2 B2 | A4 |: c2 e2 | c2 A2 | d2 c2 | B4 | A3 E | %13
w: 5.~Hail the|heav'n- born|Prince of|Peace,|Hail the|sun pf|rght- eous-|ness!|Light and|life a-|round He|brings,|Risen with|
w: 6.~Mild He|lays His|glo- ry|by,|Born that|man no|more may|die;|Born, to|raise the|sons of|earth,|Born to|
 e2 dc | B3 B | A4 :| %16
w: hea- ling *|in His|wings.|
w: give them *|se- cond|birth.|
V:4
 A,3 G, | F,2 E,2 | B,,2 B,,2 | E,4 | E,3 E, | E,2 D,2 | A,2 E,2 | A,,4 |: A,2 E,2 | A,2 C2 | %10
w: 7.~Come, de-|sire of|na- tions,|come,|Fix in|us Thy|hum- ble|home;|Raise the|wo- man's|
w: 8.~Ad- am's|like- ness|now ef-|face;|Stamp Thy|im- age|in its|place;|Se- cond|Ad- am|
 B,2 B,,2 | E,4 | A,3 G, | A,2 D,2 | E,3 E, | A,,4 :| %16
w: pro- mised|seed,|Bruise in|us the|ser- pent's|head.|
w: from a-|bove,|Work it|in us|by Thy|love.|

